static/images/homeWhyDo3.svg

<svg height="119" viewBox="0 0 119 119" width="119" xmlns="http://www.w3.org/2000/svg" xmlns:xlink="http://www.w3.org/1999/xlink"><defs><rect id="a" height="87.011765" rx="43.505882" width="87.011765"/><filter id="b" height="159.8%" width="159.8%" x="-29.9%" y="-25.3%"><feOffset dx="0" dy="4" in="SourceAlpha" result="shadowOffsetOuter1"/><feGaussianBlur in="shadowOffsetOuter1" result="shadowBlurOuter1" stdDeviation="8"/><feColorMatrix in="shadowBlurOuter1" type="matrix" values="0 0 0 0 0.254901961   0 0 0 0 0.458823529   0 0 0 0 0.647058824  0 0 0 0.24 0"/></filter><linearGradient id="c" x1="0%" x2="149.460671%" y1="0%" y2="71.875%"><stop offset="0" stop-color="#00eaf8"/><stop offset="1" stop-color="#6d42ef"/></linearGradient></defs><g fill="none" transform="translate(16 12)"><use fill="#000" filter="url(#b)" xlink:href="#a"/><use fill="#fff" fill-rule="evenodd" xlink:href="#a"/><path d="m58.2153846 49.6153846h5.2923077c.687732 0 1.2452489.5488057 1.2452489 1.2257919 0 .039475-.0018956.0785143-.0056021.1170343v7.9497967c.0570025 1.0156633-.3230579 2.0084117-1.0464197 2.7287755-.7233617.7203639-1.7202415 1.0988493-2.7401315 1.042083h-34.8859518c-1.0312556.0837316-2.0489851-.2875668-2.782277-1.0178197s-1.1061355-1.7437645-1.0220554-2.7707462v-7.8805392c-.0077009-.0551108-.0116802-.1113902-.0116802-.1685844 0-.6769862.5575169-1.2257919 1.2452489-1.2257919h5.2923077v-15.4870684h-2.7888094c-.9428079 0-1.2495824.3229539-1.2495824 1.179401v10.614609c0 .6856475-.5594571 1.2414747-1.2495824 1.2414747s-1.2495824-.5558272-1.2495824-1.2414747v-10.614609c0-2.1966257 1.3922947-3.6623504 3.7487472-3.6623504h3.8726261c.04658-.0054577.0939551-.0082627.1419751-.0082627.0480201 0 .0953952.002805.1419752.0082627h26.6834705c.04658-.0054577.0939551-.0082627.1419752-.0082627.04802 0 .0953951.002805.1419751.0082627h3.8170097c1.0257087-.0697379 2.0329337.304462 2.7612652 1.0280678.7283314.7236058 1.104975 1.7242956 1.0347817 2.7433492v10.5055424c0 .6856475-.5594571 1.2414747-1.2495824 1.2414747s-1.2495823-.5558272-1.2495823-1.2414747v-10.5525352l.0044874-.1051185c.0265055-.3098887-.0859304-.6156133-.3072808-.8355275s-.5290716-.3316206-.946789-.3008288h-2.7804928zm-2.4515837 0v-15.4870684h-24.5158371v15.4870684h2.840724c.6877319 0 1.2452489.5488057 1.2452489 1.2257919 0 .6769861-.557517 1.2257918-1.2452489 1.2257918h-2.840724v4.4751131c0 .687732-.5488057 1.2452489-1.2257919 1.2452489-.6769861 0-1.2257918-.5575169-1.2257918-1.2452489v-4.4751131h-4.0272391v6.8794744l-.006389.1256638c-.0312792.3068214.0776324.611388.2966105.8294586.2189782.2180707.5248123.3265309.8329105.2953813l.1261867-.0063626 35.0671935.0029699c.315439.0217438.62488-.0935956.8484628-.3162518.2235828-.2226563.3394023-.5308148.3175679-.8449466l-.0029822-.0859126v-6.8794744h-4.0333171v4.4751131c0 .687732-.5488057 1.2452489-1.2257918 1.2452489-.6769862 0-1.2257919-.5575169-1.2257919-1.2452489v-4.4751131h-2.840724c-.6877319 0-1.2452488-.5488057-1.2452488-1.2257918 0-.6769862.5575169-1.2257919 1.2452488-1.2257919zm-7.8087481 0c.7020597 0 1.2711915.5488057 1.2711915 1.2257919 0 .6769861-.5691318 1.2257918-1.2711915 1.2257918h-8.8983409c-.7020597 0-1.2711915-.5488057-1.2711915-1.2257918 0-.6769862.5691318-1.2257919 1.2711915-1.2257919zm-10.986821-21.6709785c-.0084623.6769333-.5640852 1.218836-1.2410184 1.2103737s-1.2188359-.5640852-1.2103735-1.2410185c.0251642-2.0129844 1.6642336-3.6315656 3.6772794-3.6314084h12.2579173c2.0309582 0 3.6773752 1.6464172 3.6773752 3.6773756 0 .6769862-.5488057 1.2257919-1.2257918 1.2257919-.676986 0-1.2257917-.5488057-1.2257917-1.2257919 0-.6769861-.5488056-1.2257918-1.2257917-1.2257918l-12.2580131-.0000001c-.6710472-.0000524-1.2174036.5394747-1.2257917 1.2104695zm7.5682732 16.0221436c-.8962527.5174517-2.0390493.2159799-2.5525077-.6733562-.5134584-.889336-.2031423-2.0297628.6931103-2.5472145.8962527-.5174517 2.0390493-.2159799 2.5525077.6733561.5134584.8893361.2031423 2.0297629-.6931103 2.5472146z" fill="url(#c)"/></g></svg>

<?xml version="1.0" encoding="UTF-8"?>
<svg width="119px" height="119px" viewBox="0 0 119 119" version="1.1" xmlns="http://www.w3.org/2000/svg" xmlns:xlink="http://www.w3.org/1999/xlink">
    <!-- Generator: sketchtool 46.2 (44496) - http://www.bohemiancoding.com/sketch -->
    <title>4C445285-D1DB-441A-BAD4-C81AC1A6AE14</title>
    <desc>Created with sketchtool.</desc>
    <defs>
        <rect id="path-1" x="0" y="0" width="87.0117647" height="87.0117647" rx="43.5058824"></rect>
        <filter x="-29.9%" y="-25.3%" width="159.8%" height="159.8%" filterUnits="objectBoundingBox" id="filter-2">
            <feOffset dx="0" dy="4" in="SourceAlpha" result="shadowOffsetOuter1"></feOffset>
            <feGaussianBlur stdDeviation="8" in="shadowOffsetOuter1" result="shadowBlurOuter1"></feGaussianBlur>
            <feColorMatrix values="0 0 0 0 0.254901961   0 0 0 0 0.458823529   0 0 0 0 0.647058824  0 0 0 0.24 0" type="matrix" in="shadowBlurOuter1"></feColorMatrix>
        </filter>
        <linearGradient x1="0%" y1="0%" x2="149.460671%" y2="71.875%" id="linearGradient-3">
            <stop stop-color="#00EAF8" offset="0%"></stop>
            <stop stop-color="#6D42EF" offset="100%"></stop>
        </linearGradient>
    </defs>
    <g id="Page-1" stroke="none" stroke-width="1" fill="none" fill-rule="evenodd">
        <g id="Home-Page-10/04/2017-screen-Install-Rakam" transform="translate(-927.000000, -2902.000000)" fill-rule="nonzero">
            <g id="Why" transform="translate(75.000000, 2814.000000)">
                <g id="Group-5" transform="translate(0.000000, 100.000000)">
                    <g id="3" transform="translate(773.000000, 0.000000)">
                        <g id="colored_portfolio-55" transform="translate(95.000000, 0.000000)">
                            <g id="Rectangle-path">
                                <use fill="black" fill-opacity="1" filter="url(#filter-2)" xlink:href="#path-1"></use>
                                <use fill="#FFFFFF" fill-rule="evenodd" xlink:href="#path-1"></use>
                            </g>
                            <path d="M58.2153846,49.6153846 L63.5076923,49.6153846 C64.1954243,49.6153846 64.7529412,50.1641903 64.7529412,50.8411765 C64.7529412,50.8806515 64.7510456,50.9196908 64.7473391,50.9582108 L64.7473391,58.9080075 C64.8043416,59.9236708 64.4242812,60.9164192 63.7009194,61.636783 C62.9775577,62.3571469 61.9806779,62.7356323 60.9607879,62.678866 L26.0748361,62.678866 C25.0435805,62.7625976 24.025851,62.3912992 23.2925591,61.6610463 C22.5592672,60.9307934 22.1864236,59.9172818 22.2705037,58.8903001 L22.2705037,51.0097609 C22.2628028,50.9546501 22.2588235,50.8983707 22.2588235,50.8411765 C22.2588235,50.1641903 22.8163404,49.6153846 23.5040724,49.6153846 L28.7963801,49.6153846 L28.7963801,34.1283162 L26.0075707,34.1283162 C25.0647628,34.1283162 24.7579883,34.4512701 24.7579883,35.3077172 L24.7579883,45.9223262 C24.7579883,46.6079737 24.1985312,47.1638009 23.5084059,47.1638009 C22.8182806,47.1638009 22.2588235,46.6079737 22.2588235,45.9223262 L22.2588235,35.3077172 C22.2588235,33.1110915 23.6511182,31.6453668 26.0075707,31.6453668 L29.8801968,31.6453668 C29.9267768,31.6399091 29.9741519,31.6371041 30.0221719,31.6371041 C30.070192,31.6371041 30.1175671,31.6399091 30.1641471,31.6453668 L56.8476176,31.6453668 C56.8941976,31.6399091 56.9415727,31.6371041 56.9895928,31.6371041 C57.0376128,31.6371041 57.0849879,31.6399091 57.1315679,31.6453668 L60.9485776,31.6453668 C61.9742863,31.5756289 62.9815113,31.9498288 63.7098428,32.6734346 C64.4381742,33.3970404 64.8148178,34.3977302 64.7446245,35.4167838 L64.7446245,45.9223262 C64.7446245,46.6079737 64.1851674,47.1638009 63.4950421,47.1638009 C62.8049168,47.1638009 62.2454598,46.6079737 62.2454598,45.9223262 L62.2454598,35.369791 L62.2499472,35.2646725 C62.2764527,34.9547838 62.1640168,34.6490592 61.9426664,34.429145 C61.721316,34.2092308 61.4135948,34.0975244 60.9958774,34.1283162 L58.2153846,34.1283162 L58.2153846,49.6153846 Z M55.7638009,49.6153846 L55.7638009,34.1283162 L31.2479638,34.1283162 L31.2479638,49.6153846 L34.0886878,49.6153846 C34.7764197,49.6153846 35.3339367,50.1641903 35.3339367,50.8411765 C35.3339367,51.5181626 34.7764197,52.0669683 34.0886878,52.0669683 L31.2479638,52.0669683 L31.2479638,56.5420814 C31.2479638,57.2298134 30.6991581,57.7873303 30.0221719,57.7873303 C29.3451858,57.7873303 28.7963801,57.2298134 28.7963801,56.5420814 L28.7963801,52.0669683 L24.769141,52.0669683 L24.769141,58.9464427 L24.762752,59.0721065 C24.7314728,59.3789279 24.8403844,59.6834945 25.0593625,59.9015651 C25.2783407,60.1196358 25.5841748,60.228096 25.892273,60.1969464 L26.0184597,60.1905838 L61.0856532,60.1935537 C61.4010922,60.2152975 61.7105332,60.0999581 61.934116,59.8773019 C62.1576988,59.6546456 62.2735183,59.3464871 62.2516839,59.0323553 L62.2487017,58.9464427 L62.2487017,52.0669683 L58.2153846,52.0669683 L58.2153846,56.5420814 C58.2153846,57.2298134 57.6665789,57.7873303 56.9895928,57.7873303 C56.3126066,57.7873303 55.7638009,57.2298134 55.7638009,56.5420814 L55.7638009,52.0669683 L52.9230769,52.0669683 C52.235345,52.0669683 51.6778281,51.5181626 51.6778281,50.8411765 C51.6778281,50.1641903 52.235345,49.6153846 52.9230769,49.6153846 L55.7638009,49.6153846 Z M47.9550528,49.6153846 C48.6571125,49.6153846 49.2262443,50.1641903 49.2262443,50.8411765 C49.2262443,51.5181626 48.6571125,52.0669683 47.9550528,52.0669683 L39.0567119,52.0669683 C38.3546522,52.0669683 37.7855204,51.5181626 37.7855204,50.8411765 C37.7855204,50.1641903 38.3546522,49.6153846 39.0567119,49.6153846 L47.9550528,49.6153846 Z M36.9682318,27.9444061 C36.9597695,28.6213394 36.4041466,29.1632421 35.7272134,29.1547798 C35.0502802,29.1463175 34.5083775,28.5906946 34.5168399,27.9137613 C34.5420041,25.9007769 36.1810735,24.2821957 38.1941193,24.2823529 L50.4520366,24.2823529 C52.4829948,24.2823529 54.1294118,25.9287701 54.1294118,27.9597285 C54.1294118,28.6367147 53.5806061,29.1855204 52.90362,29.1855204 C52.226634,29.1855204 51.6778283,28.6367147 51.6778283,27.9597285 C51.6778283,27.2827424 51.1290227,26.7339367 50.4520366,26.7339367 L38.1940235,26.7339366 C37.5229763,26.7338842 36.9766199,27.2734113 36.9682318,27.9444061 Z M44.536505,43.9665497 C43.6402523,44.4840014 42.4974557,44.1825296 41.9839973,43.2931935 C41.4705389,42.4038575 41.780855,41.2634307 42.6771076,40.745979 C43.5733603,40.2285273 44.7161569,40.5299991 45.2296153,41.4193351 C45.7430737,42.3086712 45.4327576,43.449098 44.536505,43.9665497 Z" id="Combined-Shape" fill="url(#linearGradient-3)"></path>
                        </g>
                    </g>
                </g>
            </g>
        </g>
    </g>
</svg>
